build/fonts/cisco/systemcontroller.svg

<?xml version="1.0" encoding="UTF-8" standalone="no"?>
<svg
   xmlns:dc="http://purl.org/dc/elements/1.1/"
   xmlns:cc="http://creativecommons.org/ns#"
   xmlns:rdf="http://www.w3.org/1999/02/22-rdf-syntax-ns#"
   xmlns:svg="http://www.w3.org/2000/svg"
   xmlns="http://www.w3.org/2000/svg"
   viewBox="0 0 38.75 36.25"
   height="36.25"
   width="38.75"
   xml:space="preserve"
   version="1.1"
   id="svg2"><metadata
     id="metadata8"><rdf:RDF><cc:Work
         rdf:about=""><dc:format>image/svg+xml</dc:format><dc:type
           rdf:resource="http://purl.org/dc/dcmitype/StillImage" /></cc:Work></rdf:RDF></metadata><defs
     id="defs6"><clipPath
       id="clipPath18"
       clipPathUnits="userSpaceOnUse"><path
         id="path20"
         d="M 0,9 0,290 303,290 303,9 0,9 Z" /></clipPath></defs><g
     transform="matrix(1.25,0,0,-1.25,0,36.25)"
     id="g10"><g
       transform="scale(0.1,0.1)"
       id="g12"><g
         id="g14"><g
           clip-path="url(#clipPath18)"
           id="g16"><path
             id="path22"
             style="fill:#026c9b;fill-opacity:1;fill-rule:nonzero;stroke:none"
             d="m 6.48047,13.8359 216.02,0 0,219.773 -216.02,0 0,-219.773 z" /><path
             id="path24"
             style="fill:none;stroke:#ffffff;stroke-width:4;stroke-linecap:butt;stroke-linejoin:miter;stroke-miterlimit:4;stroke-dasharray:none;stroke-opacity:1"
             d="m 6.48047,13.8359 216.02,0 0,219.773 -216.02,0 0,-219.773 z" /><path
             id="path26"
             style="fill:#026c9b;fill-opacity:1;fill-rule:nonzero;stroke:none"
             d="m 222.5,233.848 75,50.968 -216.0195,0 -75.00003,-50.968 216.01953,0" /><path
             id="path28"
             style="fill:none;stroke:#ffffff;stroke-width:4;stroke-linecap:butt;stroke-linejoin:miter;stroke-miterlimit:4;stroke-dasharray:none;stroke-opacity:1"
             d="m 222.5,233.848 75,50.968 -216.0195,0 -75.00003,-50.968 216.01953,0 z" /><path
             id="path30"
             style="fill:#026c9b;fill-opacity:1;fill-rule:nonzero;stroke:none"
             d="m 298.75,66.3477 0,219.7183 -74.77,-52.5 0,-219.7183 74.77,52.5" /><path
             id="path32"
             style="fill:none;stroke:#ffffff;stroke-width:4;stroke-linecap:butt;stroke-linejoin:miter;stroke-miterlimit:4;stroke-dasharray:none;stroke-opacity:1"
             d="m 298.75,66.3477 0,219.7183 -74.77,-52.5 0,-219.7183 74.77,52.5 z" /><path
             id="path34"
             style="fill:none;stroke:#ffffff;stroke-width:15;stroke-linecap:butt;stroke-linejoin:miter;stroke-miterlimit:4;stroke-dasharray:none;stroke-opacity:1"
             d="m 114.488,127.789 c 21.133,0 38.242,17.149 38.242,38.238 0,21.141 -17.109,38.25 -38.242,38.25 -21.1286,0 -38.238,-17.109 -38.238,-38.25 0,-21.089 17.1094,-38.238 38.238,-38.238 z" /><path
             id="path36"
             style="fill:none;stroke:#ffffff;stroke-width:15;stroke-linecap:butt;stroke-linejoin:miter;stroke-miterlimit:4;stroke-dasharray:none;stroke-opacity:1"
             d="m 114.488,114.977 0,-57.6176" /><path
             id="path38"
             style="fill:#ffffff;fill-opacity:1;fill-rule:nonzero;stroke:none"
             d="m 138.91,57.0859 -48.0506,0 23.0896,-28.9492 24.961,28.9492" /><path
             id="path40"
             style="fill:none;stroke:#ffffff;stroke-width:15;stroke-linecap:butt;stroke-linejoin:miter;stroke-miterlimit:4;stroke-dasharray:none;stroke-opacity:1"
             d="M 86.9883,122.668 56.1289,74.0781" /><path
             id="path42"
             style="fill:#ffffff;fill-opacity:1;fill-rule:nonzero;stroke:none"
             d="M 76.6016,60.7188 36.0195,86.457 40,49.668 76.6016,60.7188" /><path
             id="path44"
             style="fill:none;stroke:#ffffff;stroke-width:15;stroke-linecap:butt;stroke-linejoin:miter;stroke-miterlimit:4;stroke-dasharray:none;stroke-opacity:1"
             d="M 141.25,122.668 172.109,74.0781" /><path
             id="path46"
             style="fill:#ffffff;fill-opacity:1;fill-rule:nonzero;stroke:none"
             d="M 151.641,60.7188 192.23,86.457 188.238,49.668 151.641,60.7188" /></g></g></g></g></svg>

<svg xmlns="http://www.w3.org/2000/svg" viewBox="0 0 38.75 36.25" height="36.25" width="38.75"><defs><clipPath id="a"><path d="M0 9v281h303V9H0z"/></clipPath></defs><g clip-path="url(#a)" transform="matrix(.13 0 0 -.13 0 36.25)"><path d="M6.48 13.836H222.5v219.773H6.48V13.836z" fill="#026c9b"/><path d="M6.48 13.836H222.5v219.773H6.48V13.836z" fill="none" stroke="#fff" stroke-width="4"/><path d="M222.5 233.848l75 50.968H81.48l-75-50.968H222.5" fill="#026c9b"/><path d="M222.5 233.848l75 50.968H81.48l-75-50.968H222.5z" fill="none" stroke="#fff" stroke-width="4"/><path d="M298.75 66.348v219.718l-74.77-52.5V13.848l74.77 52.5" fill="#026c9b"/><path d="M298.75 66.348v219.718l-74.77-52.5V13.848l74.77 52.5z" fill="none" stroke="#fff" stroke-width="4"/><path d="M114.488 127.789c21.133 0 38.242 17.149 38.242 38.238 0 21.141-17.109 38.25-38.242 38.25-21.129 0-38.238-17.109-38.238-38.25 0-21.089 17.11-38.238 38.238-38.238zM114.488 114.977V57.359" fill="none" stroke="#fff" stroke-width="15"/><path d="M138.91 57.086H90.86l23.089-28.95 24.961 28.95" fill="#fff"/><path d="M86.988 122.668l-30.86-48.59" fill="none" stroke="#fff" stroke-width="15"/><path d="M76.602 60.719L36.019 86.457 40 49.668l36.602 11.05" fill="#fff"/><path d="M141.25 122.668l30.859-48.59" fill="none" stroke="#fff" stroke-width="15"/><path d="M151.641 60.719l40.589 25.738-3.992-36.789-36.597 11.05" fill="#fff"/></g></svg>
